static/assets/img/icons/theme/devices/hard-drive.svg

<svg height="24" viewBox="0 0 24 24" width="24" xmlns="http://www.w3.org/2000/svg"><g fill="none" fill-rule="evenodd"><path d="m0 0h24v24h-24z" opacity="0"/><g fill="#000"><path d="m2 13h20v5c0 1.1045695-.8954305 2-2 2h-16c-1.1045695 0-2-.8954305-2-2zm16.5 5c.8284271 0 1.5-.6715729 1.5-1.5s-.6715729-1.5-1.5-1.5-1.5.6715729-1.5 1.5.6715729 1.5 1.5 1.5zm-5 0c.8284271 0 1.5-.6715729 1.5-1.5s-.6715729-1.5-1.5-1.5-1.5.6715729-1.5 1.5.6715729 1.5 1.5 1.5z"/><path d="m5.79268604 8h12.41462796c.3384757 0 .6539782.17121884.8384436.45501165l2.9542424 4.54498835h-20l2.95424243-4.54498835c.18446532-.28379281.49996789-.45501165.83844361-.45501165z" opacity=".3"/></g></g></svg>

<svg width="24px" height="24px" viewBox="0 0 24 24" version="1.1" xmlns="http://www.w3.org/2000/svg" xmlns:xlink="http://www.w3.org/1999/xlink">
    <title>Icon For Hard-drive</title>
    <g stroke="none" stroke-width="1" fill="none" fill-rule="evenodd">
        <rect opacity="0" x="0" y="0" width="24" height="24"></rect>
        <path d="M2,13 L22,13 L22,18 C22,19.1045695 21.1045695,20 20,20 L4,20 C2.8954305,20 2,19.1045695 2,18 L2,13 Z M18.5,18 C19.3284271,18 20,17.3284271 20,16.5 C20,15.6715729 19.3284271,15 18.5,15 C17.6715729,15 17,15.6715729 17,16.5 C17,17.3284271 17.6715729,18 18.5,18 Z M13.5,18 C14.3284271,18 15,17.3284271 15,16.5 C15,15.6715729 14.3284271,15 13.5,15 C12.6715729,15 12,15.6715729 12,16.5 C12,17.3284271 12.6715729,18 13.5,18 Z" fill="#000000"></path>
        <path d="M5.79268604,8 L18.207314,8 C18.5457897,8 18.8612922,8.17121884 19.0457576,8.45501165 L22,13 L2,13 L4.95424243,8.45501165 C5.13870775,8.17121884 5.45421032,8 5.79268604,8 Z" fill="#000000" opacity="0.3"></path>
    </g>
</svg>
